X: 1
T: New Delhi
C: Perik Moraeus
Z: Approximate transcription by Moshe Braner, April 2008
R: shottish
M: 2/4
L: 1/16
N: album: Green Mountain - greatmeadowmusic.com
Z: Contributed 2008-04-14 22:07:33 by John Chambers jc1742@gmail.com
K: A
"E"e2 |\
|: "A"a2ae "D"f4 | "A"e2ec "D"d4 | "A"c2cA "D"d2dB | "A"c2cA "E"B2e2 |
    "A"a2c'g ac'2a | "E"b2fb "A"a2bf | "E"e2dc d2B2 | "A"A4 "fine"z2 e2 :|
|: "D"f2f2 "G"g4 | "D"f2f2 "G"gfed | "A"c2c2 dcBA | E2c2 dcBA |
    "D"f2f2 "G"g4 | "D"f2f2 "G"gfed | "A"c2c2 dcBA | E2c2 dcBA |
"E"d2-dc B2-BA | G2-GF E2-ED | "A"C2DF "E"E2Bd | E2d2 "A"c2z2 |
  "A"C2DF "E"E2Bd |1 E2G2 "A"A2z2 :|2 E2G2 "A"A2 e2 ||
